X:1
T:Kelvingrove
C:Traditional
M:3/4
L:1/4
Q:1/4=132
K:C
c/2d/2|e2g|d2e|c2B|A2G|A2A/2G/2|d2e|d3-|d>cd|e2g|d2e|c2B|A2G|A3|c2d|c3|]
